X: 1
T: Snowy Breasted Pearl
T: The Boys of Wexford
S: printed MS from Rich Armstrong
M: C
R: march
K: A
E2 |\
"A"A3B AGFE | "E7"e3f e2d2 | "A"c2A>B cBAG | "D"F4- F2"E7"G2 |\
"A"A3B AGFE | "E7"e3f e2d2 | "A"c2B2 "D"ABcd | "E7"e6 ||
e2 |\
"D"f2d2 "(Bm7)"a2f2 | "(E7)"e2d2 "A"c2e2 | "D"d2c2 B2A2 | "F#m"F4- F2"E7"G2 |\
"A"A3B "E7"AGFE | "A"e3f e2"D"d2 | "A"c2A>B "E7"cBAG | "A"A6 |]
